svg/s/IR.svg

<svg width="16" height="12" viewBox="0 0 16 12" fill="none" xmlns="http://www.w3.org/2000/svg">
<mask id="mask0" mask-type="alpha" maskUnits="userSpaceOnUse" x="0" y="0" width="16" height="12">
<rect width="16" height="12" fill="white"/>
</mask>
<g mask="url(#mask0)">
<path fill-rule="evenodd" clip-rule="evenodd" d="M0 0V12H16V0H0Z" fill="#F7FCFF"/>
<mask id="mask1" mask-type="alpha" maskUnits="userSpaceOnUse" x="0" y="0" width="16" height="12">
<path fill-rule="evenodd" clip-rule="evenodd" d="M0 0V12H16V0H0Z" fill="white"/>
</mask>
<g mask="url(#mask1)">
<path fill-rule="evenodd" clip-rule="evenodd" d="M0 0V4H16V0H0Z" fill="#5EAA22"/>
<path fill-rule="evenodd" clip-rule="evenodd" d="M0 8V12H16V8H0Z" fill="#E31D1C"/>
<path d="M0.186311 8.68342H-0.950714" stroke="#F7FCFF" stroke-width="0.5"/>
<path d="M-0.962433 9.13356V8.87256H-0.5923V9.1248H-0.218286V8.87284H-0.412329" stroke="#F7FCFF" stroke-width="0.5"/>
<path d="M0.169136 9.12304H-0.0193329V8.87812H0.377482V8.67749V9.12304H0.55705V8.67749" stroke="#F7FCFF" stroke-width="0.5"/>
<path d="M0.759069 8.70398C0.759069 8.7286 0.759069 9.1249 0.759069 9.1249H0.572678" stroke="#F7FCFF" stroke-width="0.5"/>
<path d="M2.13753 8.68342H1.0005" stroke="#F7FCFF" stroke-width="0.5"/>
<path d="M0.988785 9.13356V8.87256H1.35892V9.1248H1.73293V8.87284H1.53889" stroke="#F7FCFF" stroke-width="0.5"/>
<path d="M2.1552 9.12304H1.96674V8.87812H2.36355V8.67749V9.12304H2.54312V8.67749" stroke="#F7FCFF" stroke-width="0.5"/>
<path d="M2.74514 8.70398C2.74514 8.7286 2.74514 9.1249 2.74514 9.1249H2.55875" stroke="#F7FCFF" stroke-width="0.5"/>
<path d="M4.1236 8.68342H2.98657" stroke="#F7FCFF" stroke-width="0.5"/>
<path d="M2.97485 9.13356V8.87256H3.34499V9.1248H3.719V8.87284H3.52496" stroke="#F7FCFF" stroke-width="0.5"/>
<path d="M4.10642 9.12304H3.91795V8.87812H4.31477V8.67749V9.12304H4.49434V8.67749" stroke="#F7FCFF" stroke-width="0.5"/>
<path d="M4.69636 8.70398C4.69636 8.7286 4.69636 9.1249 4.69636 9.1249H4.50996" stroke="#F7FCFF" stroke-width="0.5"/>
<path d="M6.07482 8.68342H4.93779" stroke="#F7FCFF" stroke-width="0.5"/>
<path d="M4.92607 9.13356V8.87256H5.2962V9.1248H5.67022V8.87284H5.47617" stroke="#F7FCFF" stroke-width="0.5"/>
<path d="M6.05764 9.12304H5.86917V8.87812H6.26599V8.67749V9.12304H6.44555V8.67749" stroke="#F7FCFF" stroke-width="0.5"/>
<path d="M6.64757 8.70398C6.64757 8.7286 6.64757 9.1249 6.64757 9.1249H6.46118" stroke="#F7FCFF" stroke-width="0.5"/>
<path d="M8.02603 8.68342H6.88901" stroke="#F7FCFF" stroke-width="0.5"/>
<path d="M6.87729 9.13356V8.87256H7.24742V9.1248H7.62144V8.87284H7.42739" stroke="#F7FCFF" stroke-width="0.5"/>
<path d="M8.04371 9.12304H7.85524V8.87812H8.25205V8.67749V9.12304H8.43162V8.67749" stroke="#F7FCFF" stroke-width="0.5"/>
<path d="M8.63364 8.70398C8.63364 8.7286 8.63364 9.1249 8.63364 9.1249H8.44725" stroke="#F7FCFF" stroke-width="0.5"/>
<path d="M10.0121 8.68342H8.87508" stroke="#F7FCFF" stroke-width="0.5"/>
<path d="M8.86336 9.13356V8.87256H9.23349V9.1248H9.6075V8.87284H9.41346" stroke="#F7FCFF" stroke-width="0.5"/>
<path d="M10.0298 9.12304H9.84129V8.87812H10.2381V8.67749V9.12304H10.4177V8.67749" stroke="#F7FCFF" stroke-width="0.5"/>
<path d="M10.6197 8.70398C10.6197 8.7286 10.6197 9.1249 10.6197 9.1249H10.4333" stroke="#F7FCFF" stroke-width="0.5"/>
<path d="M11.9982 8.68342H10.8611" stroke="#F7FCFF" stroke-width="0.5"/>
<path d="M10.8494 9.13356V8.87256H11.2195V9.1248H11.5936V8.87284H11.3995" stroke="#F7FCFF" stroke-width="0.5"/>
<path d="M12.0158 9.12304H11.8274V8.87812H12.2242V8.67749V9.12304H12.4037V8.67749" stroke="#F7FCFF" stroke-width="0.5"/>
<path d="M12.6058 8.70398C12.6058 8.7286 12.6058 9.1249 12.6058 9.1249H12.4194" stroke="#F7FCFF" stroke-width="0.5"/>
<path d="M13.9842 8.68342H12.8472" stroke="#F7FCFF" stroke-width="0.5"/>
<path d="M12.8355 9.13356V8.87256H13.2056V9.1248H13.5796V8.87284H13.3856" stroke="#F7FCFF" stroke-width="0.5"/>
<path d="M13.967 9.12304H13.7786V8.87812H14.1754V8.67749V9.12304H14.355V8.67749" stroke="#F7FCFF" stroke-width="0.5"/>
<path d="M14.557 8.70398C14.557 8.7286 14.557 9.1249 14.557 9.1249H14.3706" stroke="#F7FCFF" stroke-width="0.5"/>
<path d="M15.9354 8.68342H14.7984" stroke="#F7FCFF" stroke-width="0.5"/>
<path d="M14.7867 9.13356V8.87256H15.1568V9.1248H15.5308V8.87284H15.3368" stroke="#F7FCFF" stroke-width="0.5"/>
<path d="M16.0228 9.12304H15.8343V8.87812H16.2311V8.67749V9.12304H16.4107V8.67749" stroke="#F7FCFF" stroke-width="0.5"/>
<path d="M0.186311 2.58345H-0.950714" stroke="#F7FCFF" stroke-width="0.5"/>
<path d="M-0.962433 3.03359V2.77258H-0.5923V3.02482H-0.218286V2.77286H-0.412329" stroke="#F7FCFF" stroke-width="0.5"/>
<path d="M0.169136 3.02306H-0.0193329V2.77815H0.377482V2.57751V3.02306H0.55705V2.57751" stroke="#F7FCFF" stroke-width="0.5"/>
<path d="M0.759069 2.604C0.759069 2.62863 0.759069 3.02492 0.759069 3.02492H0.572678" stroke="#F7FCFF" stroke-width="0.5"/>
<path d="M2.13753 2.58345H1.0005" stroke="#F7FCFF" stroke-width="0.5"/>
<path d="M0.988785 3.03359V2.77258H1.35892V3.02482H1.73293V2.77286H1.53889" stroke="#F7FCFF" stroke-width="0.5"/>
<path d="M2.1552 3.02306H1.96674V2.77815H2.36355V2.57751V3.02306H2.54312V2.57751" stroke="#F7FCFF" stroke-width="0.5"/>
<path d="M2.74514 2.604C2.74514 2.62863 2.74514 3.02492 2.74514 3.02492H2.55875" stroke="#F7FCFF" stroke-width="0.5"/>
<path d="M4.1236 2.58345H2.98657" stroke="#F7FCFF" stroke-width="0.5"/>
<path d="M2.97485 3.03359V2.77258H3.34499V3.02482H3.719V2.77286H3.52496" stroke="#F7FCFF" stroke-width="0.5"/>
<path d="M4.10642 3.02306H3.91795V2.77815H4.31477V2.57751V3.02306H4.49434V2.57751" stroke="#F7FCFF" stroke-width="0.5"/>
<path d="M4.69636 2.604C4.69636 2.62863 4.69636 3.02492 4.69636 3.02492H4.50996" stroke="#F7FCFF" stroke-width="0.5"/>
<path d="M6.07482 2.58345H4.93779" stroke="#F7FCFF" stroke-width="0.5"/>
<path d="M4.92607 3.03359V2.77258H5.2962V3.02482H5.67022V2.77286H5.47617" stroke="#F7FCFF" stroke-width="0.5"/>
<path d="M6.05764 3.02306H5.86917V2.77815H6.26599V2.57751V3.02306H6.44555V2.57751" stroke="#F7FCFF" stroke-width="0.5"/>
<path d="M6.64757 2.604C6.64757 2.62863 6.64757 3.02492 6.64757 3.02492H6.46118" stroke="#F7FCFF" stroke-width="0.5"/>
<path d="M8.02603 2.58345H6.88901" stroke="#F7FCFF" stroke-width="0.5"/>
<path d="M6.87729 3.03359V2.77258H7.24742V3.02482H7.62144V2.77286H7.42739" stroke="#F7FCFF" stroke-width="0.5"/>
<path d="M8.04371 3.02306H7.85524V2.77815H8.25205V2.57751V3.02306H8.43162V2.57751" stroke="#F7FCFF" stroke-width="0.5"/>
<path d="M8.63364 2.604C8.63364 2.62863 8.63364 3.02492 8.63364 3.02492H8.44725" stroke="#F7FCFF" stroke-width="0.5"/>
<path d="M10.0121 2.58345H8.87508" stroke="#F7FCFF" stroke-width="0.5"/>
<path d="M8.86336 3.03359V2.77258H9.23349V3.02482H9.6075V2.77286H9.41346" stroke="#F7FCFF" stroke-width="0.5"/>
<path d="M10.0298 3.02306H9.84129V2.77815H10.2381V2.57751V3.02306H10.4177V2.57751" stroke="#F7FCFF" stroke-width="0.5"/>
<path d="M10.6197 2.604C10.6197 2.62863 10.6197 3.02492 10.6197 3.02492H10.4333" stroke="#F7FCFF" stroke-width="0.5"/>
<path d="M11.9982 2.58345H10.8611" stroke="#F7FCFF" stroke-width="0.5"/>
<path d="M10.8494 3.03359V2.77258H11.2195V3.02482H11.5936V2.77286H11.3995" stroke="#F7FCFF" stroke-width="0.5"/>
<path d="M12.0158 3.02306H11.8274V2.77815H12.2242V2.57751V3.02306H12.4037V2.57751" stroke="#F7FCFF" stroke-width="0.5"/>
<path d="M12.6058 2.604C12.6058 2.62863 12.6058 3.02492 12.6058 3.02492H12.4194" stroke="#F7FCFF" stroke-width="0.5"/>
<path d="M13.9842 2.58345H12.8472" stroke="#F7FCFF" stroke-width="0.5"/>
<path d="M12.8355 3.03359V2.77258H13.2056V3.02482H13.5796V2.77286H13.3856" stroke="#F7FCFF" stroke-width="0.5"/>
<path d="M13.967 3.02306H13.7786V2.77815H14.1754V2.57751V3.02306H14.355V2.57751" stroke="#F7FCFF" stroke-width="0.5"/>
<path d="M14.557 2.604C14.557 2.62863 14.557 3.02492 14.557 3.02492H14.3706" stroke="#F7FCFF" stroke-width="0.5"/>
<path d="M15.9354 2.58345H14.7984" stroke="#F7FCFF" stroke-width="0.5"/>
<path d="M14.7867 3.03359V2.77258H15.1568V3.02482H15.5308V2.77286H15.3368" stroke="#F7FCFF" stroke-width="0.5"/>
<path d="M16.0228 3.02306H15.8343V2.77815H16.2311V2.57751V3.02306H16.4107V2.57751" stroke="#F7FCFF" stroke-width="0.5"/>
<path fill-rule="evenodd" clip-rule="evenodd" d="M7.30314 4.125C7.30314 4.125 7.5168 4.2375 7.73549 4.2375C7.95418 4.2375 8.17422 4.125 8.17422 4.125V4.275C8.17422 4.275 7.93401 4.3875 7.72126 4.3875C7.50851 4.3875 7.30314 4.275 7.30314 4.275V4.125ZM5.7282 5.8953C5.7282 5.0063 6.94919 4.425 6.94919 4.425C6.94919 4.425 6.24348 4.8031 6.24348 5.85804C6.24348 6.91299 6.60983 7.36983 6.60983 7.36983C6.60983 7.36983 5.7282 6.7843 5.7282 5.8953ZM9.84703 5.84624C9.84703 4.95724 8.62718 4.425 8.62718 4.425C8.62718 4.425 9.3329 4.8031 9.3329 5.85804C9.3329 6.91299 8.96654 7.36983 8.96654 7.36983C8.96654 7.36983 9.84703 6.73524 9.84703 5.84624ZM6.56175 6.08879C6.51522 5.20101 7.25376 4.40526 7.25376 4.40526C7.25376 4.40526 6.98495 4.77092 7.04016 5.82442C7.05912 6.18614 7.20159 6.72431 7.3811 7.04159V4.4625H8.1311V7.06396C8.31085 6.76758 8.44934 6.26228 8.46857 5.8953C8.52379 4.8418 8.26787 4.40526 8.26787 4.40526C8.26787 4.40526 9.00641 5.20101 8.95988 6.08879C8.93217 6.61753 8.52532 7.17671 8.20077 7.54253C8.35847 7.5777 8.56985 7.62057 8.86042 7.67793C8.86662 7.71008 8.80187 7.70859 8.67322 7.70563C8.53117 7.70236 8.3112 7.6973 8.02281 7.73375C7.89023 7.86964 7.79794 7.95019 7.79794 7.95019C7.79794 7.95019 7.78335 7.93048 7.76082 7.90321C7.73828 7.93048 7.72369 7.95019 7.72369 7.95019C7.72369 7.95019 7.63141 7.86964 7.49882 7.73375C7.21043 7.6973 6.99047 7.70236 6.84841 7.70563C6.71976 7.70859 6.65501 7.71008 6.66121 7.67793C6.95178 7.62057 7.16316 7.5777 7.32086 7.54253C6.99631 7.17671 6.58946 6.61753 6.56175 6.08879Z" fill="#E31D1C"/>
</g>
</g>
</svg>

<svg width="16" height="12" fill="none" xmlns="http://www.w3.org/2000/svg">
  <mask id="a" maskUnits="userSpaceOnUse" x="0" y="0" width="16" height="12">
    <path fill="#fff" d="M0 0h16v12H0z"/>
  </mask>
  <g mask="url(#a)">
    <path fill-rule="evenodd" clip-rule="evenodd" d="M0 0v12h16V0H0z" fill="#F7FCFF"/>
    <mask id="b" maskUnits="userSpaceOnUse" x="0" y="0" width="16" height="12">
      <path fill-rule="evenodd" clip-rule="evenodd" d="M0 0v12h16V0H0z" fill="#fff"/>
    </mask>
    <g mask="url(#b)">
      <path fill-rule="evenodd" clip-rule="evenodd" d="M0 0v4h16V0H0z" fill="#5EAA22"/>
      <path fill-rule="evenodd" clip-rule="evenodd" d="M0 8v4h16V8H0z" fill="#E31D1C"/>
      <path d="M.186 8.683H-.95m-.012.451v-.261h.37v.252h.374v-.252h-.194m.582.25h-.19v-.245h.397v-.2.445h.18v-.445m.202.026v.42H.573m1.565-.441H1m-.011.451v-.261h.37v.252h.374v-.252h-.194m.616.25h-.188v-.245h.396v-.2.445h.18v-.445m.202.026v.42H2.56m1.564-.441H2.987m-.012.451v-.261h.37v.252h.374v-.252h-.194m.581.25h-.188v-.245h.397v-.2.445h.18v-.445m.201.026v.42H4.51m1.565-.441H4.938m-.012.451v-.261h.37v.252h.374v-.252h-.194m.582.25h-.189v-.245h.397v-.2.445h.18v-.445m.202.026v.42H6.46m1.566-.441H6.89m-.013.451v-.261h.37v.252h.374v-.252h-.194m.617.25h-.189v-.245h.397v-.2.445h.18v-.445m.202.026v.42h-.187m1.565-.441H8.875m-.012.451v-.261h.37v.252h.375v-.252h-.194m.616.25h-.19v-.245h.397v-.2.445h.18v-.445m.203.026v.42h-.187m1.565-.441h-1.137m-.011.451v-.261h.37v.252h.374v-.252H11.4m.616.25h-.189v-.245h.397v-.2.445h.18v-.445m.202.026v.42h-.187m1.565-.441h-1.137m-.012.451v-.261h.37v.252h.375v-.252h-.194m.581.25h-.188v-.245h.396v-.2.445h.18v-.445m.202.026v.42h-.186m1.564-.441H14.8m-.013.451v-.261h.37v.252h.374v-.252h-.194m.686.25h-.189v-.245h.397v-.2.445h.18v-.445M.186 2.583H-.95m-.012.451v-.261h.37v.252h.374v-.252h-.194m.582.25h-.19v-.245h.397v-.2.445h.18v-.446m.202.027v.42H.573m1.565-.441H1m-.011.451v-.261h.37v.252h.374v-.252h-.194m.616.25h-.188v-.245h.396v-.2.445h.18v-.446m.202.027v.42H2.56m1.564-.441H2.987m-.012.451v-.261h.37v.252h.374v-.252h-.194m.581.25h-.188v-.245h.397v-.2.445h.18v-.446m.201.027v.42H4.51m1.565-.441H4.938m-.012.451v-.261h.37v.252h.374v-.252h-.194m.582.25h-.189v-.245h.397v-.2.445h.18v-.446m.202.027v.42H6.46m1.566-.441H6.89m-.013.451v-.261h.37v.252h.374v-.252h-.194m.617.25h-.189v-.245h.397v-.2.445h.18v-.446m.202.027v.42h-.187m1.565-.441H8.875m-.012.451v-.261h.37v.252h.375v-.252h-.194m.616.25h-.19v-.245h.397v-.2.445h.18v-.446m.203.027v.42h-.187m1.565-.441h-1.137m-.011.451v-.261h.37v.252h.374v-.252H11.4m.616.25h-.189v-.245h.397v-.2.445h.18v-.446m.202.027v.42h-.187m1.565-.441h-1.137m-.012.451v-.261h.37v.252h.375v-.252h-.194m.581.25h-.188v-.245h.396v-.2.445h.18v-.446m.202.027v.42h-.186m1.564-.441H14.8m-.013.451v-.261h.37v.252h.374v-.252h-.194m.686.25h-.189v-.245h.397v-.2.445h.18v-.446" stroke="#F7FCFF" stroke-width=".5"/>
      <path fill-rule="evenodd" clip-rule="evenodd" d="M7.303 4.125s.214.112.432.112c.22 0 .44-.112.44-.112v.15s-.241.112-.454.112c-.213 0-.418-.112-.418-.112v-.15zm-1.575 1.77c0-.889 1.221-1.47 1.221-1.47s-.706.378-.706 1.433c0 1.055.367 1.512.367 1.512s-.882-.586-.882-1.475zm4.119-.049c0-.889-1.22-1.421-1.22-1.421s.706.378.706 1.433c0 1.055-.367 1.512-.367 1.512s.881-.635.881-1.524zm-3.285.243c-.047-.888.692-1.684.692-1.684s-.27.366-.214 1.42c.02.361.162.9.341 1.217v-2.58h.75v2.602c.18-.296.318-.802.338-1.169.055-1.053-.201-1.49-.201-1.49s.738.796.692 1.684c-.028.529-.435 1.088-.76 1.454.158.035.37.078.66.135.007.032-.058.03-.187.028a4.118 4.118 0 00-.65.028c-.133.136-.225.216-.225.216l-.037-.047c-.023.027-.037.047-.037.047s-.093-.08-.225-.216a4.118 4.118 0 00-.65-.028c-.13.003-.194.004-.188-.028.29-.057.502-.1.66-.135-.325-.366-.732-.925-.76-1.454z" fill="#E31D1C"/>
    </g>
  </g>
</svg>
